X: 24
M: C|
L: 1/8
K: A
c>B |\
|: (3cBA |\
c>Ae>A f>A (3cBA | c>Ae>A f>A (3cBA | c>Ae>A f>Ag>A | (3fga g>f e3B |
c>ea>c B>df>B | A>G (3ABc E3C | D>FA>d c>BA>G | B2A2 A2 H:|

